img/telegram.svg

<svg width="64" height="64" viewBox="0 0 64 64" fill="none" xmlns="http://www.w3.org/2000/svg">
<circle cx="31.6782" cy="31.6782" r="31.6782" fill="#2F89CE"/>
<path d="M14.8106 32.2707L22.0936 34.9864L24.9327 44.121C25.0561 44.7382 25.7968 44.8616 26.2905 44.4913L30.364 41.1584C30.7343 40.7881 31.3516 40.7881 31.8453 41.1584L39.1283 46.4663C39.622 46.8366 40.3627 46.5898 40.4861 45.9726L45.9174 20.0502C46.0409 19.433 45.4237 18.8158 44.8065 19.0627L14.8106 30.666C14.07 30.9129 14.07 32.0239 14.8106 32.2707ZM24.5624 33.6286L38.8814 24.8644C39.1282 24.7409 39.3751 25.1112 39.1283 25.2347L27.4015 36.2208C27.0312 36.5911 26.6608 37.0849 26.6608 37.7021L26.2905 40.6647C26.2905 41.035 25.6733 41.1584 25.5499 40.6647L24.0686 35.2333C23.6983 34.6161 23.9452 33.8755 24.5624 33.6286Z" fill="white"/>
</svg>

<svg width="64" height="64" fill="none" xmlns="http://www.w3.org/2000/svg"><circle cx="31.678" cy="31.678" r="31.678" fill="#2F89CE"/><path d="M14.81 32.27l7.284 2.716 2.839 9.135c.123.617.864.74 1.358.37l4.073-3.333c.37-.37.988-.37 1.481 0l7.283 5.308c.494.37 1.235.124 1.358-.493l5.431-25.923c.124-.617-.493-1.234-1.11-.987L14.81 30.666c-.741.247-.741 1.358 0 1.605zm9.752 1.359l14.32-8.765c.246-.123.493.247.246.37L27.401 36.222c-.37.37-.74.864-.74 1.481l-.37 2.963c0 .37-.618.493-.741 0l-1.481-5.432c-.37-.617-.124-1.357.493-1.604z" fill="#fff"/></svg>
